<?xml version="1.0" encoding="UTF-8"?>
<map version="1.8" tiledversion="1.8.2" orientation="orthogonal" renderorder="right-down" width="27" height="20" tilewidth="32" tileheight="32" infinite="0" nextlayerid="1" nextobjectid="1">
 <tileset firstgid="1" name="tiles" tilewidth="32" tileheight="32" tilecount="3" columns="3">
  <image source="../assets/tiles.png" width="96" height="32"/>
 </tileset>
 <tileset firstgid="4" source="../assets/tiles/Pipoya RPG Tileset 32x32/SampleMap/samplemap.tsx"/>
 <layer id="1" name="ground" width="27" height="20">
  <data encoding="csv">
671,671,671,671,671,671,671,671,1593,1594,1595,1596,1596,671,671,671,671,671,671,671,671,671,671,671,671,671,671,
671,671,671,671,671,671,671,671,1593,1594,1595,1596,1596,671,671,671,671,671,671,671,671,671,671,671,671,671,671,
671,671,671,671,671,671,671,671,1593,1594,1595,1596,1596,671,671,671,671,671,671,671,671,671,671,671,671,671,671,
671,671,671,671,671,671,671,671,1593,1594,1595,1596,1596,671,671,671,671,671,671,671,671,671,671,671,671,671,671,
671,671,671,671,671,671,671,671,1593,1594,1595,1596,1596,671,671,671,671,671,671,671,671,671,671,671,671,671,671,
671,671,671,671,671,671,671,671,1593,1594,1595,1596,1596,671,671,671,671,671,671,671,671,671,671,671,671,671,671,
671,671,671,671,671,671,671,671,1593,1594,1595,1596,1596,671,671,671,671,671,671,671,671,671,671,671,671,671,671,
671,671,671,671,671,671,671,671,1593,1594,1595,1596,1596,671,671,671,671,671,671,671,671,671,671,671,671,671,671,
671,671,671,671,671,671,671,671,1593,1594,1595,1596,1596,671,671,671,671,671,671,671,671,671,671,671,671,671,671,
671,671,671,671,671,671,671,671,1593,1594,1595,1596,1596,1596,671,671,671,671,671,671,671,671,671,671,671,671,671,
671,671,671,671,671,671,671,671,1593,1594,1595,1596,1596,1596,671,671,671,671,671,671,671,671,671,671,671,671,671,
671,671,671,671,671,671,671,671,1593,1594,1595,1596,1596,1596,671,671,671,671,671,671,671,671,671,671,671,671,671,
671,671,671,671,671,671,671,671,1593,1594,1595,1596,1596,1596,671,671,671,671,671,671,671,671,671,671,671,671,671,
671,671,671,671,671,671,671,671,1593,1594,1595,1596,1596,671,671,671,671,671,671,671,671,671,671,671,671,671,671,
671,671,671,671,671,671,671,671,1593,1594,1595,1596,1596,671,671,671,671,671,671,671,671,671,671,671,671,671,671,
671,671,671,671,671,671,671,671,1593,1594,1595,1596,1596,671,671,671,671,671,671,671,671,671,671,671,671,671,671,
671,671,671,671,671,671,671,671,1593,1594,1595,1596,1596,671,671,671,671,671,671,671,671,671,671,671,671,671,671,
671,671,671,671,671,671,671,671,1593,1594,1595,1596,1596,671,671,671,671,671,671,671,671,671,671,671,671,671,671,
671,671,671,671,671,671,671,671,1593,1594,1595,1596,1596,671,671,671,671,671,671,671,671,671,671,671,671,671,671,
671,671,671,671,671,671,671,671,1593,1594,1595,1596,1596,671,671,671,671,671,671,671,671,671,671,671,671,671,671
</data>
 </layer>
 <layer id="2" name="walls" width="27" height="20">
  <data encoding="csv">
0,0,0,0,0,0,0,0,0,0,0,0,0,0,0,0,0,0,0,0,0,0,0,0,0,0,0,
0,0,0,0,0,0,0,0,0,0,0,0,0,0,0,0,0,0,0,0,0,0,0,0,0,0,0,
0,0,0,0,0,0,0,0,0,0,0,0,0,0,0,0,0,0,0,0,0,0,0,0,0,0,0,
0,0,0,0,0,0,0,0,0,0,0,0,0,0,0,0,0,0,0,0,0,0,0,0,0,0,0,
0,0,0,0,0,0,0,0,0,0,0,0,0,0,0,0,0,0,0,0,0,0,0,0,0,0,0,
0,0,0,0,0,0,0,0,0,0,0,0,0,0,0,0,0,0,0,0,0,0,0,0,0,0,0,
0,0,0,0,0,0,0,0,0,0,0,0,0,0,0,0,0,0,0,0,0,0,0,0,0,0,0,
0,0,0,0,0,0,0,0,0,0,0,0,0,0,0,0,0,0,0,0,0,0,0,0,0,0,0,
0,0,0,0,0,0,0,0,0,0,0,0,0,0,0,0,0,0,0,0,0,0,0,0,0,0,0,
0,0,0,0,0,0,0,0,0,0,0,0,0,0,0,0,0,0,0,0,0,0,0,0,0,0,0,
0,0,0,0,0,0,0,0,0,0,0,0,0,0,0,0,0,0,0,0,0,0,0,0,0,0,0,
0,0,0,0,0,0,0,0,0,0,0,0,0,0,0,0,0,0,0,0,0,0,0,0,0,0,0,
0,0,0,0,0,0,0,0,0,0,0,0,0,0,0,0,0,0,0,0,0,0,0,0,0,0,0,
0,0,0,0,0,0,0,0,0,0,0,0,0,0,0,0,0,0,0,0,0,0,0,0,0,0,0,
0,0,0,0,0,0,0,0,0,0,0,0,0,0,0,0,0,0,0,0,0,0,0,0,0,0,0,
0,0,0,0,0,0,0,0,0,0,0,0,0,0,0,0,0,0,0,0,0,0,0,0,0,0,0,
0,0,0,0,0,0,0,0,0,0,0,0,0,0,0,0,0,0,0,0,0,0,0,0,0,0,0,
0,0,0,0,0,0,0,0,0,0,0,0,0,0,0,0,0,0,0,0,0,0,0,0,0,0,0,
0,0,0,0,0,0,0,0,0,0,0,0,0,0,0,0,0,0,0,0,0,0,0,0,0,0,0,
0,0,0,0,0,0,0,0,0,0,0,0,0,0,0,0,0,0,0,0,0,0,0,0,0,0,0
</data>
 </layer>
 <objectgroup id="3" name="trees">
  <object id="303" x="112" y="112"/>
  <object id="316" x="112" y="528"/>
  <object id="703" x="240" y="112"/>
  <object id="716" x="240" y="528"/>
  <object id="1103" x="414" y="133"/>
  <object id="1503" x="496" y="112"/>
  <object id="1903" x="624" y="112"/>
  <object id="2303" x="752" y="112"/>
  <object id="1116" x="381" y="527"/>
  <object id="1516" x="496" y="528"/>
  <object id="1916" x="624" y="528"/>
  <object id="2316" x="752" y="528"/>
  <object id="509" x="176" y="304"/>
  <object id="913" x="254" y="429"/>
  <object id="2111" x="688" y="368"/>
 </objectgroup>
 <objectgroup id="4" name="transitions">
  <object id="101" name="to_player_house" x="320" y="-32" width="64" height="32">
   <properties>
    <property name="spawnX" value="5"/>
    <property name="spawnY" value="9"/>
    <property name="targetMap" value="player_house"/>
   </properties>
  </object>
 </objectgroup>
 <objectgroup id="5" name="fence">
  <object id="201" x="0" y="0" width="320" height="8"/>
  <object id="202" x="352" y="0" width="512" height="8"/>
  <object id="203" x="0" y="632" width="864" height="8"/>
  <object id="204" x="0" y="0" width="8" height="640"/>
  <object id="205" x="856" y="0" width="8" height="640"/>
 </objectgroup>
 <objectgroup id="6" name="spawn">
  <object id="301" name="player_spawn" x="448" y="320"/>
 </objectgroup>
</map>
